contributed-vectors/karta_krakowska.svg

<svg xmlns="http://www.w3.org/2000/svg" xml:space="preserve" style="fill-rule:evenodd;clip-rule:evenodd;stroke-linejoin:round;stroke-miterlimit:2" viewBox="0 0 192 192"><path d="M164.5 21.5c0-5.519-4.481-10-10-10h-133c-5.519 0-10 4.481-10 10v133c0 5.519 4.481 10 10 10h133c5.519 0 10-4.481 10-10v-133Z" style="fill:#fff" transform="translate(8 8)"/><path d="M77.431 142.877v-26.019h17.5v26.686c-4.807 0-11.099-.28-17.5-.667Zm23.11-26.019h13.23l24.091 24.091c-7.557.668-24.841 2.11-37.321 2.498v-26.589Zm-54.336 0h25.616v25.656c-12.36-.847-23.611-1.908-23.611-1.908s-1.117-11.333-2.005-23.748Zm95.79 20.291-24.242-24.243V99.495h26.998c-.429 12.669-2.043 30.286-2.756 37.654ZM45.167 96.69h26.654v14.558H45.827c-.326-5.172-.577-10.267-.66-14.558Zm99.691-2.805h-26.953V76.341h26.222c.424 6.416.731 12.725.731 17.544ZM45.839 76.341h25.982V91.08H45.167c.084-4.342.34-9.506.672-14.739Zm72.066-31.357c12.415.965 23.748 2.18 23.748 2.18s1.155 11.224 2.078 23.567h-25.826V44.984Zm-20.169-1.128c4.292.09 9.387.363 14.559.717v26.158H97.736V43.856Zm-5.609 0v26.875H77.431V44.583c5.22-.359 10.366-.637 14.696-.727Zm-20.306 1.139v25.736H46.218c.885-12.343 1.992-23.567 1.992-23.567s11.251-1.206 23.611-2.169Z" style="fill:#9abeff" transform="matrix(.879 0 0 .879 12.484 13.638)"/><text x="79.148" y="101.794" style="font-family:&quot;Montserrat-Bold&quot;,&quot;Montserrat&quot;;font-weight:700;font-size:29.403px;fill:#728dbe" transform="matrix(.62947 0 0 .62947 47.47 47.507)">K</text><text x="79.148" y="101.794" style="font-family:&quot;Montserrat-Bold&quot;,&quot;Montserrat&quot;;font-weight:700;font-size:29.403px;fill:#728dbe" transform="matrix(.62947 0 0 .62947 29.188 29.62)">K</text></svg>

<?xml version="1.0" encoding="UTF-8" standalone="no"?>
<!DOCTYPE svg PUBLIC "-//W3C//DTD SVG 1.1//EN" "http://www.w3.org/Graphics/SVG/1.1/DTD/svg11.dtd">
<svg width="100%" height="100%" viewBox="0 0 192 192" version="1.1" xmlns="http://www.w3.org/2000/svg" xmlns:xlink="http://www.w3.org/1999/xlink" xml:space="preserve" xmlns:serif="http://www.serif.com/" style="fill-rule:evenodd;clip-rule:evenodd;stroke-linejoin:round;stroke-miterlimit:2;">
    <g id="Layer1">
        <g transform="matrix(1,0,0,1,8,8)">
            <path d="M164.5,21.5C164.5,15.981 160.019,11.5 154.5,11.5L21.5,11.5C15.981,11.5 11.5,15.981 11.5,21.5L11.5,154.5C11.5,160.019 15.981,164.5 21.5,164.5L154.5,164.5C160.019,164.5 164.5,160.019 164.5,154.5L164.5,21.5Z" style="fill:white;"/>
        </g>
        <g transform="matrix(0.878999,0,0,0.878999,11.6161,11.6161)">
            <g transform="matrix(1,0,0,1,0.987336,2.29982)">
                <path d="M77.431,142.877L77.431,116.858L94.931,116.858L94.931,143.544C90.124,143.544 83.832,143.264 77.431,142.877ZM100.541,116.858L113.771,116.858L137.862,140.949C130.305,141.617 113.021,143.059 100.541,143.447L100.541,116.858ZM46.205,116.858L71.821,116.858L71.821,142.514C59.461,141.667 48.21,140.606 48.21,140.606C48.21,140.606 47.093,129.273 46.205,116.858ZM141.995,137.149L117.753,112.906L117.753,99.495L144.751,99.495C144.322,112.164 142.708,129.781 141.995,137.149ZM45.167,96.69L71.821,96.69L71.821,111.248L45.827,111.248C45.501,106.076 45.25,100.981 45.167,96.69ZM144.858,93.885L117.905,93.885L117.905,76.341L144.127,76.341C144.551,82.757 144.858,89.066 144.858,93.885ZM45.839,76.341L71.821,76.341L71.821,91.08L45.167,91.08C45.251,86.738 45.507,81.574 45.839,76.341ZM117.905,44.984C130.32,45.949 141.653,47.164 141.653,47.164C141.653,47.164 142.808,58.388 143.731,70.731L117.905,70.731L117.905,44.984ZM97.736,43.856C102.028,43.946 107.123,44.219 112.295,44.573L112.295,70.731L97.736,70.731L97.736,43.856ZM92.127,43.856L92.127,70.731L77.431,70.731L77.431,44.583C82.651,44.224 87.797,43.946 92.127,43.856ZM71.821,44.995L71.821,70.731L46.218,70.731C47.103,58.388 48.21,47.164 48.21,47.164C48.21,47.164 59.461,45.958 71.821,44.995Z" style="fill:rgb(154,190,255);"/>
            </g>
            <g transform="matrix(0.852592,0,0,0.852592,17.6357,11.4975)">
                <g transform="matrix(0.839939,0,0,0.839939,27.1564,34.4055)">
                    <text x="79.148px" y="101.794px" style="font-family:'Montserrat-Bold', 'Montserrat';font-weight:700;font-size:29.403px;fill:rgb(114,141,190);">K</text>
                </g>
                <g transform="matrix(0.839939,0,0,0.839939,2.76224,10.5382)">
                    <text x="79.148px" y="101.794px" style="font-family:'Montserrat-Bold', 'Montserrat';font-weight:700;font-size:29.403px;fill:rgb(114,141,190);">K</text>
                </g>
            </g>
        </g>
    </g>
</svg>
